tools/download-figma-icons/icons/solid/file.svg

<svg width="24" height="24" viewBox="0 0 24 24" fill="none" xmlns="http://www.w3.org/2000/svg">
<path fill-rule="evenodd" clip-rule="evenodd" d="M15.8399 6.63001C15.4431 6.63001 15.1124 6.30751 15.1124 5.91001V1.82251L19.9274 6.63001H15.8399ZM16.4999 12.735H7.49988C7.08738 12.735 6.74988 12.405 6.74988 11.985C6.74988 11.5725 7.08738 11.235 7.49988 11.235H16.4999C16.9199 11.235 17.2499 11.5725 17.2499 11.985C17.2499 12.405 16.9199 12.735 16.4999 12.735ZM16.4999 15.87H7.49988C7.08738 15.87 6.74988 15.5325 6.74988 15.12C6.74988 14.7075 7.08738 14.37 7.49988 14.37H16.4999C16.9199 14.37 17.2499 14.7075 17.2499 15.12C17.2499 15.5325 16.9199 15.87 16.4999 15.87ZM16.4999 19.005H7.49988C7.08738 19.005 6.74988 18.6675 6.74988 18.255C6.74988 17.8425 7.08738 17.505 7.49988 17.505H16.4999C16.9199 17.505 17.2499 17.8425 17.2499 18.255C17.2499 18.6675 16.9199 19.005 16.4999 19.005ZM21.5324 6.1125L15.6374 0.2175C15.4949 0.075 15.2999 0 15.1056 0H2.99988C2.58738 0 2.24988 0.33 2.24988 0.75V23.235C2.24988 23.655 2.58738 23.985 2.99988 23.985H20.9999C21.4199 23.985 21.7499 23.655 21.7499 23.235V6.645C21.7499 6.45 21.6749 6.255 21.5324 6.1125Z" fill="black"/>
</svg>

<svg width="24" height="24" viewBox="0 0 24 24" fill="none" xmlns="http://www.w3.org/2000/svg"><path fill-rule="evenodd" clip-rule="evenodd" d="M15.84 6.63a.727.727 0 0 1-.728-.72V1.823l4.815 4.807H15.84Zm.66 6.105h-9a.747.747 0 0 1-.75-.75c0-.412.337-.75.75-.75h9c.42 0 .75.338.75.75 0 .42-.33.75-.75.75Zm0 3.135h-9a.752.752 0 0 1-.75-.75c0-.412.337-.75.75-.75h9c.42 0 .75.338.75.75 0 .413-.33.75-.75.75Zm0 3.135h-9a.752.752 0 0 1-.75-.75c0-.412.337-.75.75-.75h9c.42 0 .75.338.75.75 0 .413-.33.75-.75.75Zm5.032-12.892L15.637.217A.755.755 0 0 0 15.106 0H3c-.413 0-.75.33-.75.75v22.485c0 .42.337.75.75.75h18c.42 0 .75-.33.75-.75V6.645a.755.755 0 0 0-.218-.532Z" fill="currentColor"/></svg>
